icon-svg/aqara-wirelessbutton.svg

<svg xmlns="http://www.w3.org/2000/svg" viewBox="0 0 24 24"><path fill="#44739e" d="M10.535 6.817c2.777-.188 5.03 2.127 5.03 5.187s-2.253 5.375-5.03 5.187c-2.844-.192-4.637-2.155-4.637-5.187s1.793-4.995 4.637-5.187M2.08 7.02v9.968a4.317 4.317 0 0 0 3.907 4.27l9.033.684h.039q.328.035.671.051h.073q.139.009.275.007h.172a6.76 6.76 0 0 0 3.564-1.385 4.35 4.35 0 0 0 2.106-3.245V6.63a4.32 4.32 0 0 0-1.992-3.241A6.55 6.55 0 0 0 16.25 2h-.158c-.1 0-.194 0-.291.007h-.033l-9.781.739A4.317 4.317 0 0 0 2.08 7.02m.2-.011a4.11 4.11 0 0 1 3.718-4.061l9.786-.74c2.076-.156 3.748 1.673 3.748 4.062v11.447c0 2.389-1.672 4.218-3.748 4.062l-9.786-.741a4.11 4.11 0 0 1-3.716-4.06Zm.416 0v9.969a3.69 3.69 0 0 0 3.328 3.642l9.787.739c1.815.137 3.296-1.482 3.296-3.642V6.27c0-2.16-1.481-3.78-3.296-3.643l-9.787.74a3.69 3.69 0 0 0-3.328 3.642m2.782 4.985c0-3.251 1.963-5.402 5.029-5.602 3.028-.205 5.478 2.312 5.478 5.602s-2.45 5.81-5.478 5.602c-3.066-.205-5.029-2.352-5.029-5.602"/></svg>

<?xml version="1.0" encoding="UTF-8"?>
<svg width="24px" fill="#44739e" height="24px" viewBox="0 0 24 24" version="1.1" xmlns="http://www.w3.org/2000/svg" xmlns:xlink="http://www.w3.org/1999/xlink">
            <path d="m 10.536,6.815 c 2.775,-0.188 5.028,2.126 5.028,5.185 0,3.059 -2.253,5.373 -5.028,5.185 C 7.693,16.993 5.9,15.031 5.9,12 5.9,8.969 7.693,7.007 10.536,6.815 Z M 2.084,7.018 v 9.964 a 4.315,4.315 0 0 0 3.905,4.269 l 9.03,0.683 h 0.039 c 0.22,0.023 0.441,0.04 0.671,0.051 h 0.043 0.03 c 0.092,0.006 0.183,0.008 0.274,0.007 h 0.172 a 6.756,6.756 0 0 0 3.563,-1.384 4.346,4.346 0 0 0 2.105,-3.244 V 6.628 A 4.321,4.321 0 0 0 19.925,3.388 6.554,6.554 0 0 0 16.248,2 H 16.09 C 15.99,2 15.897,2 15.8,2.007 H 15.767 L 5.989,2.746 A 4.315,4.315 0 0 0 2.084,7.018 Z m 0.2,-0.011 A 4.106,4.106 0 0 1 6,2.948 l 9.783,-0.74 c 2.075,-0.156 3.746,1.672 3.746,4.06 v 11.443 c 0,2.388 -1.671,4.216 -3.746,4.06 L 6,21.031 A 4.106,4.106 0 0 1 2.286,16.972 Z M 16.248,2 V 2 Z M 2.7,7.007 v 9.965 a 3.687,3.687 0 0 0 3.326,3.641 l 9.784,0.739 c 1.814,0.137 3.294,-1.482 3.294,-3.641 V 6.268 c 0,-2.159 -1.48,-3.778 -3.294,-3.641 L 6.026,3.366 A 3.687,3.687 0 0 0 2.7,7.007 Z m 2.78,4.983 c 0,-3.25 1.963,-5.4 5.028,-5.6 3.026,-0.205 5.475,2.311 5.475,5.6 0,3.289 -2.449,5.808 -5.475,5.6 C 7.443,17.385 5.48,15.239 5.48,11.99 Z"/>

</svg>
